X: 1
T: Voyden drid lum
B: A COLECTION of the most Celebrated Irish Tunes2 p.0b
M: C
L: 1/8
K: G
|:\
G2G2 G4 | AB (AG) G2 (E<D) | c2 (cd) B4 | BABd e2g2 |
G2GA G4 | BABG A2=f2 | e2(dB) ABAG | G6 G2 :|
|:\
=f3g Te2fe | d2BA TG4 | =f2fg Te2fe | d2ef g4 |
g2g=f Te2fe | d2BA G2E<D | (G/A/B) AG G3G | BABd eg3 :|
